packages/tokens/icons/leaf2/size24Px.svg

<svg viewBox="0 0 24 24" fill="none" xmlns="http://www.w3.org/2000/svg" width="1em" height="1em"><path d="M13.9416 18.5C16 18.5 18.5 16.9191 18.5 14C18.5 10.2674 14.4159 4.91235 12.7224 2.85226C12.3429 2.39064 11.6571 2.39064 11.2776 2.85227C9.58409 4.91235 5.5 10.2674 5.5 14C5.5 16.9191 8 18.5 10.0584 18.5" stroke="currentColor" stroke-linecap="round"/><path d="M12 7L12 21.5M10 9.5L12 11.5L14 9.5M9 12.5L12 15.5L15 12.5" stroke="currentColor" stroke-linecap="round"/></svg>

<svg xmlns="http://www.w3.org/2000/svg" fill="none" viewBox="0 0 24 24" width="1em" height="1em"><path stroke="currentColor" stroke-linecap="round" d="M13.942 18.5C16 18.5 18.5 16.92 18.5 14c0-3.733-4.084-9.088-5.778-11.148a.927.927 0 0 0-1.444 0C9.584 4.912 5.5 10.267 5.5 14c0 2.92 2.5 4.5 4.558 4.5"/><path stroke="currentColor" stroke-linecap="round" d="M12 7v14.5m-2-12 2 2 2-2m-5 3 3 3 3-3"/></svg>
